v/0.4.11/design-resources/icons/wf_doctype-icons/file-msword.svg

<?xml version="1.0" encoding="utf-8"?>
<!-- Generated by IcoMoon.io -->
<!DOCTYPE svg PUBLIC "-//W3C//DTD SVG 1.1//EN" "http://www.w3.org/Graphics/SVG/1.1/DTD/svg11.dtd">
<svg version="1.1" xmlns="http://www.w3.org/2000/svg" xmlns:xlink="http://www.w3.org/1999/xlink" width="512" height="512" viewBox="0 0 512 512">
<g>
</g>
	<path d="M133.859 448h-69.859v-384h284.8c19.409 0 35.2 15.791 35.2 35.2v92.8h32v-92.8c0-37.114-30.086-67.2-67.2-67.2h-316.8v448h109.097l-7.238-32z" fill="#595959" />
	<path d="M350.564 480h-50.109l-34.092-151.386-38.101 151.386h-54.357l-57.905-256h57.058l28.874 159.040 38.511-159.040h53.213l33.129 160.079 25.476-112.079h-20.77v-48h84.509z" fill="#595959" />
</svg>

<svg xmlns="http://www.w3.org/2000/svg" width="512" height="512" viewBox="0 0 512 512"><path stroke="#449FDB" d="M0 0"/><path d="M133.86 448H64V64h284.8c19.41 0 35.2 15.79 35.2 35.2V192h32V99.2c0-37.114-30.086-67.2-67.2-67.2H32v448h109.097l-7.238-32zm216.704 32h-50.11l-34.09-151.386L228.26 480h-54.357L116 224h57.058l28.874 159.04L240.442 224h53.214l33.13 160.08L352.26 272h-20.77v-48H416z" fill="#595959"/></svg>
